<?xml version="1.0" encoding="UTF-8"?>
<map version="1.10" tiledversion="1.11.0" orientation="orthogonal" renderorder="right-down" width="32" height="64" tilewidth="16" tileheight="16" infinite="0" nextlayerid="4" nextobjectid="14">
 <tileset firstgid="1" source="../tilesets/tileset16x.tsx"/>
 <layer id="1" name="background layer" width="32" height="64">
  <data encoding="csv">
21,21,21,21,21,21,21,21,21,21,21,21,21,21,21,21,21,21,21,21,21,21,21,21,21,21,21,21,21,21,21,21,
21,21,21,21,21,21,21,21,21,21,21,21,21,21,21,21,21,21,21,21,21,21,21,21,21,21,21,21,21,21,21,21,
21,21,21,21,21,21,21,21,21,21,21,21,21,21,21,21,21,21,21,21,21,21,21,21,21,21,21,21,21,21,21,21,
21,21,21,21,21,21,21,21,21,21,21,21,21,21,21,21,21,21,21,21,21,21,21,21,21,21,21,21,21,21,21,21,
21,21,21,21,21,21,21,21,21,21,21,21,21,21,21,21,21,21,21,21,21,21,21,21,21,21,21,21,21,21,21,21,
21,21,21,21,21,21,21,21,21,21,21,21,21,21,21,21,21,21,21,21,21,21,21,21,21,21,21,21,21,21,21,21,
21,21,21,21,21,21,21,21,21,21,21,21,21,21,21,21,21,21,21,21,21,21,21,21,21,21,21,21,21,21,21,21,
21,21,21,21,21,21,21,21,21,21,21,21,21,21,21,21,21,21,21,21,21,21,21,21,21,21,21,21,21,21,21,21,
21,21,21,21,21,21,21,21,21,21,21,21,21,21,21,21,21,21,21,21,21,21,21,21,21,21,21,21,21,21,21,21,
21,21,21,21,21,21,21,21,21,21,21,21,21,21,21,21,21,21,21,21,21,21,21,21,21,21,21,21,21,21,21,21,
21,21,21,21,21,21,21,21,21,21,21,21,21,21,21,21,21,21,21,21,21,21,21,21,21,21,21,21,21,21,21,21,
21,21,21,21,21,21,21,21,21,21,21,21,21,21,21,21,21,21,21,21,21,21,21,21,21,21,21,21,21,21,21,21,
21,21,21,21,21,21,21,21,21,21,21,21,21,21,21,21,21,21,21,21,21,21,21,21,21,21,21,21,21,21,21,21,
21,21,21,21,21,21,21,21,21,21,21,21,21,21,21,21,21,21,21,21,21,21,21,21,21,21,21,21,21,21,21,21,
21,21,21,21,21,21,21,21,21,21,21,21,21,21,21,21,21,21,21,21,21,21,21,21,21,21,21,21,21,21,21,21,
21,21,21,21,21,21,21,21,21,21,21,21,21,21,21,21,21,21,21,21,21,21,21,21,21,21,21,21,21,21,21,21,
21,21,21,21,21,21,21,21,21,21,21,21,21,21,21,21,21,21,21,21,21,21,21,21,21,21,21,21,21,21,21,21,
21,21,21,21,21,21,21,21,21,21,21,21,21,21,21,21,21,21,21,21,21,21,21,21,21,21,21,21,21,21,21,21,
21,21,21,21,21,21,21,21,21,21,21,21,21,21,21,21,21,21,21,21,21,21,21,21,21,21,21,21,21,21,21,21,
21,21,21,21,21,21,21,21,21,21,21,21,21,21,21,21,21,21,21,21,21,21,21,21,21,21,21,21,21,21,21,21,
21,21,21,21,21,21,21,21,21,21,21,21,21,21,21,21,21,21,21,21,21,21,21,21,21,21,21,21,21,21,21,21,
21,21,21,21,21,21,21,21,21,21,21,21,21,21,21,21,21,21,21,21,21,21,21,21,21,21,21,21,21,21,21,21,
21,21,21,21,21,21,21,21,21,21,21,21,21,21,21,21,21,21,21,21,21,21,21,21,21,21,21,21,21,21,21,21,
21,21,21,21,21,21,21,21,21,21,21,21,21,21,21,21,21,21,21,21,21,21,21,21,21,21,21,21,21,21,21,21,
21,21,21,21,21,21,21,21,21,21,21,21,21,21,21,21,21,21,21,21,21,21,21,21,21,21,21,21,21,21,21,21,
21,21,21,21,21,21,21,21,21,21,21,21,21,21,21,21,21,21,21,21,21,21,21,21,21,21,21,21,21,21,21,21,
21,21,21,21,21,21,21,21,21,21,21,21,21,21,21,21,21,21,21,21,21,21,21,21,21,21,21,21,21,21,21,21,
21,21,21,21,21,21,21,21,21,21,21,21,21,21,21,21,21,21,21,21,21,21,21,21,21,21,21,21,21,21,21,21,
21,21,21,21,21,21,21,21,21,21,21,21,21,21,21,21,21,21,21,21,21,21,21,21,21,21,21,21,21,21,21,21,
21,21,21,21,21,21,21,21,21,21,21,21,21,21,21,21,21,21,21,21,21,21,21,21,21,21,21,21,21,21,21,21,
21,21,21,21,21,21,21,21,21,21,21,21,21,21,21,21,21,21,21,21,21,21,21,21,21,21,21,21,21,21,21,21,
21,21,21,21,21,21,21,21,21,21,21,21,21,21,21,21,21,21,21,21,21,21,21,21,21,21,21,21,21,21,21,21,
21,21,21,21,21,21,21,21,21,21,21,21,21,21,21,21,21,21,21,21,21,21,21,21,21,21,21,21,21,21,21,21,
21,21,21,21,21,21,21,21,21,21,21,21,21,21,21,21,21,21,21,21,21,21,21,21,21,21,21,21,21,21,21,21,
21,21,21,21,21,21,21,21,21,21,21,21,21,21,21,21,21,21,21,21,21,21,21,21,21,21,21,21,21,21,21,21,
21,21,21,21,21,21,21,21,21,21,21,21,21,21,21,21,21,21,21,21,21,21,21,21,21,21,21,21,21,21,21,21,
21,21,21,21,21,21,21,21,21,21,21,21,21,21,21,21,21,21,21,21,21,21,21,21,21,21,21,21,21,21,21,21,
21,21,21,21,21,21,21,21,21,21,21,21,21,21,21,21,21,21,21,21,21,21,21,21,21,21,21,21,21,21,21,21,
21,21,21,21,21,21,21,21,21,21,21,21,21,21,21,21,21,21,21,21,21,21,21,21,21,21,21,21,21,21,21,21,
21,21,21,21,21,21,21,21,21,21,21,21,21,21,21,21,21,21,21,21,21,21,21,21,21,21,21,21,21,21,21,21,
21,21,21,21,21,21,21,21,21,21,21,21,21,21,21,21,21,21,21,21,21,21,21,21,21,21,21,21,21,21,21,21,
21,21,21,21,21,21,21,21,21,21,21,21,21,21,21,21,21,21,21,21,21,21,21,21,21,21,21,21,21,21,21,21,
21,21,21,21,21,21,21,21,21,21,21,21,21,21,21,21,21,21,21,21,21,21,21,21,21,21,21,21,21,21,21,21,
21,21,21,21,21,21,21,21,21,21,21,21,21,21,21,21,21,21,21,21,21,21,21,21,21,21,21,21,21,21,21,21,
21,21,21,21,21,21,21,21,21,21,21,21,21,21,21,21,21,21,21,21,21,21,21,21,21,21,21,21,21,21,21,21,
21,21,21,21,21,21,21,21,21,21,21,21,21,21,21,21,21,21,21,21,21,21,21,21,21,21,21,21,21,21,21,21,
21,21,21,21,21,21,21,21,21,21,21,21,21,21,21,21,21,21,21,21,21,21,21,21,21,21,21,21,21,21,21,21,
21,21,21,21,21,21,21,21,21,21,21,21,21,21,21,21,21,21,21,21,21,21,21,21,21,21,21,21,21,21,21,21,
21,21,21,21,21,21,21,21,21,21,21,21,21,21,21,21,21,21,21,21,21,21,21,21,21,21,21,21,21,21,21,21,
21,21,21,21,21,21,21,21,21,21,21,21,21,21,21,21,21,21,21,21,21,21,21,21,21,21,21,21,21,21,21,21,
21,21,21,21,21,21,21,21,21,21,21,21,21,21,21,21,21,21,21,21,21,21,21,21,21,21,21,21,21,21,21,21,
21,21,21,21,21,21,21,21,21,21,21,21,21,21,21,21,21,21,21,21,21,21,21,21,21,21,21,21,21,21,21,21,
21,21,21,21,21,21,21,21,21,21,21,21,21,21,21,21,21,21,21,21,21,21,21,21,21,21,21,21,21,21,21,21,
21,21,21,21,21,21,21,21,21,21,21,21,21,21,21,21,21,21,21,21,21,21,21,21,21,21,21,21,21,21,21,21,
21,21,21,21,21,21,21,21,21,21,21,21,21,21,21,21,21,21,21,21,21,21,21,21,21,21,21,21,21,21,21,21,
21,21,21,21,21,21,21,21,21,21,21,21,21,21,21,21,21,21,21,21,21,21,21,21,21,21,21,21,21,21,21,21,
21,21,21,21,21,21,21,21,21,21,21,21,21,21,21,21,21,21,21,21,21,21,21,21,21,21,21,21,21,21,21,21,
21,21,21,21,21,21,21,21,21,21,21,21,21,21,21,21,21,21,21,21,21,21,21,21,21,21,21,21,21,21,21,21,
21,21,21,21,21,21,21,21,21,21,21,21,21,21,21,21,21,21,21,21,21,21,21,21,21,21,21,21,21,21,21,21,
21,21,21,21,21,21,21,21,21,21,21,21,21,21,21,21,21,21,21,21,21,21,21,21,21,21,21,21,21,21,21,21,
21,21,21,21,21,21,21,21,21,21,21,21,21,21,21,21,21,21,21,21,21,21,21,21,21,21,21,21,21,21,21,21,
21,21,21,21,21,21,21,21,21,21,21,21,21,21,21,21,21,21,21,21,21,21,21,21,21,21,21,21,21,21,21,21,
21,21,21,21,21,21,21,21,21,21,21,21,21,21,21,21,21,21,21,21,21,21,21,21,21,21,21,21,21,21,21,21,
21,21,21,21,21,21,21,21,21,21,21,21,21,21,21,21,21,21,21,21,21,21,21,21,21,21,21,21,21,21,21,21
</data>
 </layer>
 <layer id="2" name="wall layer" width="32" height="64">
  <data encoding="csv">
17,17,17,17,17,17,17,17,17,17,17,17,17,17,17,17,17,17,17,17,17,17,17,17,17,17,17,17,17,17,17,17,
17,17,17,17,17,17,17,17,17,17,17,17,17,17,17,36,36,17,17,17,17,17,17,17,17,17,17,17,17,17,17,17,
17,17,17,17,17,17,20,0,0,0,0,0,0,0,0,0,0,0,0,0,0,0,0,0,0,0,0,0,19,17,17,17,
17,17,17,17,17,20,0,0,0,0,0,0,0,0,0,0,0,0,0,0,0,0,0,0,0,0,0,0,0,17,17,17,
17,17,17,17,20,0,0,4,17,17,17,17,17,17,17,17,17,17,17,17,17,17,17,17,17,17,0,0,0,17,17,17,
17,17,17,20,0,0,4,17,17,17,17,17,17,17,17,17,17,17,17,17,17,17,17,17,17,17,0,0,0,17,17,17,
17,17,17,0,0,4,17,17,17,20,0,0,0,0,0,0,0,0,0,0,0,0,0,19,17,17,0,0,0,19,17,17,
17,17,17,0,0,19,17,17,17,0,0,0,0,0,0,0,0,0,0,0,0,0,0,0,17,17,0,0,0,0,8,17,
17,17,17,5,0,0,19,17,17,0,0,0,0,0,0,0,0,0,0,0,0,0,0,0,17,17,0,0,0,4,17,17,
17,17,17,17,5,0,0,17,17,0,0,0,0,0,0,0,0,0,0,0,0,0,0,0,17,17,0,0,0,17,17,17,
17,17,17,17,20,0,0,17,17,0,0,0,0,0,0,0,0,0,0,0,0,0,0,0,17,17,0,0,0,17,17,17,
17,17,17,20,0,0,4,17,17,0,0,0,0,0,0,0,0,0,0,0,0,0,0,0,17,17,0,0,0,17,17,17,
17,17,17,0,0,4,17,17,17,0,0,0,0,0,0,0,0,0,0,0,0,0,0,0,17,17,0,0,0,17,17,17,
17,17,17,0,0,19,17,17,17,0,0,0,0,0,0,0,0,0,0,0,0,0,0,0,17,17,0,0,0,17,17,17,
17,17,17,5,0,0,19,17,17,0,0,0,0,0,0,0,0,0,0,0,0,0,0,0,17,17,0,0,0,17,17,17,
17,17,17,17,5,0,0,17,17,0,0,0,0,0,0,0,0,0,0,17,17,17,17,17,17,17,0,0,0,17,17,17,
17,17,17,17,20,0,0,17,17,0,0,0,0,0,0,0,0,0,0,19,17,17,17,17,17,20,0,0,0,17,17,17,
17,17,17,20,0,0,4,17,17,0,0,0,0,0,0,0,0,0,0,0,0,0,0,0,0,0,0,0,0,17,17,17,
17,17,17,0,0,4,17,17,17,0,0,0,0,0,0,0,0,0,0,0,0,0,0,0,0,0,0,0,0,17,17,17,
17,17,17,0,0,19,17,17,17,0,0,0,17,17,17,17,17,17,17,17,17,17,17,17,17,17,17,17,17,17,17,17,
17,17,17,5,0,0,19,17,17,0,0,0,17,17,17,17,17,17,17,17,17,17,17,17,17,17,7,17,17,17,17,17,
17,17,17,17,5,0,0,17,17,0,0,0,19,17,17,17,17,17,17,17,17,17,17,17,17,20,0,19,17,17,17,17,
17,17,17,17,20,0,0,17,17,0,0,0,0,0,0,19,17,17,17,20,0,0,0,19,17,0,0,0,17,17,17,17,
17,17,17,20,0,0,4,17,17,0,0,0,0,0,0,0,17,17,17,0,0,0,0,0,0,0,0,0,19,17,17,17,
17,17,17,0,0,4,17,17,17,0,0,0,4,5,0,0,19,17,20,0,0,0,0,0,0,0,0,0,0,17,17,17,
17,17,17,0,0,19,17,17,17,0,0,0,17,17,0,0,0,0,0,0,0,0,0,0,0,0,0,0,0,17,17,17,
17,17,17,5,0,0,19,17,17,0,0,0,17,17,0,0,0,0,0,0,0,0,0,0,17,0,0,0,0,17,17,17,
17,17,17,17,5,0,0,17,17,0,0,0,19,20,0,0,4,17,5,0,0,0,0,0,17,0,0,0,0,17,17,17,
17,17,17,17,20,0,0,17,17,0,0,0,0,0,0,0,17,17,17,0,0,0,0,0,17,0,0,0,0,17,17,17,
17,17,17,20,0,0,4,17,17,0,0,0,0,0,0,0,17,17,17,0,0,0,0,0,17,0,0,0,0,17,17,17,
17,17,17,0,0,4,17,17,17,17,17,17,17,17,17,17,17,17,17,17,17,17,17,17,17,0,0,0,0,17,17,17,
17,17,17,0,0,19,17,17,17,20,0,0,0,0,0,0,0,0,0,0,0,0,0,19,17,0,0,0,0,17,17,17,
17,17,17,0,0,0,19,17,17,0,0,0,0,0,0,0,0,0,0,0,0,0,0,0,17,0,0,0,0,17,17,17,
17,17,17,0,0,0,0,17,17,0,0,0,0,0,0,0,0,0,0,0,0,0,0,0,17,0,0,0,0,17,17,17,
17,17,17,0,0,0,0,17,17,0,0,0,0,0,0,0,17,17,17,17,17,0,0,0,17,0,0,0,0,17,17,17,
17,17,17,0,0,0,0,17,17,0,0,0,0,0,0,0,17,17,17,17,17,0,0,0,17,0,0,0,0,17,17,17,
17,17,17,0,0,0,0,17,17,0,0,0,0,0,0,0,17,17,17,17,17,0,0,0,17,0,0,0,0,17,17,17,
17,17,17,0,0,0,0,17,17,0,0,0,0,0,0,0,19,17,17,17,20,0,0,0,17,0,0,0,0,17,17,17,
17,17,17,0,0,0,0,17,17,0,0,0,0,0,0,0,0,0,0,0,0,0,0,0,0,0,0,0,0,17,17,17,
17,17,17,0,0,0,0,17,17,0,0,0,0,0,0,0,0,0,0,0,0,0,0,0,0,0,0,0,0,17,17,17,
17,17,17,0,0,0,0,17,17,0,0,0,0,0,0,0,0,0,0,0,0,0,0,0,0,0,0,0,0,17,17,17,
17,17,17,0,0,0,0,17,17,17,17,17,17,17,0,0,17,17,17,17,17,17,17,17,17,17,17,17,17,17,17,17,
17,17,17,0,0,0,0,17,17,17,7,17,17,17,0,0,17,17,17,17,17,17,17,17,17,17,17,17,17,17,17,17,
17,17,17,0,0,0,0,17,17,20,0,19,17,17,0,0,17,17,17,17,17,17,17,17,17,17,17,17,17,17,17,17,
17,17,17,0,0,0,0,17,17,0,0,0,17,17,0,0,17,17,0,0,0,0,0,0,0,0,0,0,19,17,17,17,
17,17,17,0,0,0,0,17,17,0,0,0,17,20,0,0,19,17,0,0,0,0,0,0,0,0,0,0,0,17,17,17,
17,17,17,0,0,0,0,17,17,0,0,0,0,0,0,0,0,0,0,0,0,0,17,17,17,17,0,0,0,17,17,17,
17,17,17,0,0,0,0,17,17,0,0,0,0,0,0,0,0,0,0,0,0,0,17,17,17,17,0,0,0,17,17,17,
17,17,17,0,0,0,0,17,17,0,0,0,0,0,0,0,0,0,0,0,0,0,17,17,17,17,0,0,0,17,17,17,
17,17,17,0,0,0,0,17,17,0,0,0,0,0,0,0,0,0,0,0,0,0,17,17,17,17,0,0,0,17,17,17,
17,17,17,0,0,0,0,17,17,17,17,17,17,17,17,17,17,17,17,17,17,17,17,17,17,17,0,0,0,17,17,17,
17,17,17,0,0,0,0,17,17,17,17,17,17,17,17,17,17,17,17,17,17,17,17,17,17,20,0,0,0,17,17,17,
17,17,17,0,0,0,0,17,17,20,0,0,0,0,0,0,0,0,0,0,0,0,0,0,0,0,0,0,0,17,17,17,
17,17,17,0,0,0,0,17,17,0,0,0,0,0,0,0,0,0,0,0,0,0,0,0,0,0,0,0,0,17,17,17,
17,17,17,0,0,0,0,17,17,0,0,0,0,0,0,0,0,0,0,0,0,0,0,0,0,0,0,0,0,17,17,17,
17,17,17,0,0,0,0,17,17,17,17,17,17,17,17,17,17,17,17,17,17,17,17,17,17,17,17,17,17,17,17,17,
17,17,17,0,0,0,0,17,17,17,17,17,17,17,17,17,17,17,17,17,17,17,17,17,17,17,17,17,17,17,17,17,
17,17,17,0,0,0,0,0,0,0,0,0,0,0,0,0,0,0,0,0,0,0,0,0,0,19,17,17,17,17,17,17,
17,17,17,0,0,0,0,0,0,0,0,0,0,0,0,0,0,0,0,0,0,0,0,0,0,0,0,19,17,17,17,17,
17,17,17,0,0,0,0,0,0,0,0,0,0,0,0,0,0,0,0,0,0,0,0,0,0,0,0,0,8,17,17,17,
17,17,17,0,0,0,0,0,0,0,0,0,0,0,0,0,0,0,0,0,0,0,0,0,0,0,0,4,17,17,17,17,
17,17,17,0,0,0,0,0,0,0,0,0,0,0,0,0,0,0,0,0,0,0,0,0,0,4,17,17,17,17,17,17,
17,17,17,17,17,17,17,17,17,17,17,17,17,17,17,17,17,17,17,17,17,17,17,17,17,17,17,17,17,17,17,17,
17,17,17,17,17,17,17,17,17,17,17,17,17,17,17,17,17,17,17,17,17,17,17,17,17,17,17,17,17,17,17,17
</data>
 </layer>
 <objectgroup id="3" name="object layer">
  <object id="1" template="../templates/SpawnerTrigger-rect.tx" x="400" y="768" width="64" height="48">
   <properties>
    <property name="spawner_id" type="object" value="5"/>
   </properties>
  </object>
  <object id="2" template="../templates/PlayerSpawn.tx" type="PlayerSpawn" x="439.5" y="857.5"/>
  <object id="5" type="Spawner" x="168.049" y="680.051">
   <properties>
    <property name="active" type="bool" value="false"/>
    <property name="delay" type="float" value="3"/>
    <property name="immediate" type="bool" value="true"/>
    <property name="interval" type="float" value="0.5"/>
    <property name="num_spawn" type="int" value="3"/>
    <property name="repeats" type="bool" value="true"/>
   </properties>
   <point/>
  </object>
  <object id="8" type="Spawner" x="424.076" y="327.973">
   <properties>
    <property name="active" type="bool" value="false"/>
    <property name="delay" type="float" value="0.1"/>
    <property name="immediate" type="bool" value="false"/>
    <property name="interval" type="float" value="1.5"/>
    <property name="num_spawn" type="int" value="2"/>
    <property name="repeats" type="bool" value="false"/>
   </properties>
   <point/>
  </object>
  <object id="9" template="../templates/SpawnerTrigger-rect.tx" x="224" y="688" width="32" height="32">
   <properties>
    <property name="spawner_id" type="object" value="8"/>
   </properties>
  </object>
  <object id="10" type="Spawner" x="437.478" y="111.678">
   <properties>
    <property name="active" type="bool" value="false"/>
    <property name="delay" type="float" value="0.1"/>
    <property name="immediate" type="bool" value="false"/>
    <property name="interval" type="float" value="0.2"/>
    <property name="num_spawn" type="int" value="3"/>
    <property name="repeats" type="bool" value="false"/>
   </properties>
   <point/>
  </object>
  <object id="11" template="../templates/SpawnerTrigger-rect.tx" x="144" y="320" width="48" height="32">
   <properties>
    <property name="spawner_id" type="object" value="10"/>
   </properties>
  </object>
  <object id="12" template="../templates/SpawnerTrigger-rect.tx" x="416" y="768" width="64" height="48">
   <properties>
    <property name="spawner_id" type="object" value="13"/>
   </properties>
  </object>
  <object id="13" type="Spawner" x="456.015" y="952.027">
   <properties>
    <property name="active" type="bool" value="false"/>
    <property name="delay" type="float" value="2"/>
    <property name="immediate" type="bool" value="true"/>
    <property name="interval" type="float" value="0.2"/>
    <property name="num_spawn" type="int" value="100"/>
    <property name="repeats" type="bool" value="false"/>
   </properties>
   <point/>
  </object>
 </objectgroup>
</map>
